PortableApps/LibreOfficePortable/App/libreoffice/help/media/icon-themes/cmd/sc_ungroup.svg

<svg viewBox="0 0 16 16" xmlns="http://www.w3.org/2000/svg"><path d="m9 0v5h6v-5zm1 1h4v3h-4zm-1 5v4h6v-4zm1 1h4v2h-4zm-1 4v5h6v-5zm1 1h4v3h-4z" fill="#808080"/><path d="m10 1v3h4v-3zm0 6v2h4v-2zm0 5v3h4v-3z" fill="#fff"/><path d="m3.5 2c-.277 0-.5.223-.5.5v2c0 .277.223.5.5.5s.5-.223.5-.5v-1.5h3.5c.277 0 .5-.223.5-.5s-.223-.5-.5-.5zm0 9c-.277 0-.5.223-.5.5v2c0 .277.223.5.5.5h4c.277 0 .5-.223.5-.5s-.223-.5-.5-.5h-3.5v-1.5c0-.277-.223-.5-.5-.5z" fill="#4d82b8"/><path d="m1 7h6v2h-6z" fill="#e68497"/></svg>

<svg viewBox="0 0 16 16" xmlns="http://www.w3.org/2000/svg">
  <path
     style="fill:#808080"
     d="M 9 0 L 9 5 L 15 5 L 15 0 L 9 0 z M 10 1 L 14 1 L 14 4 L 10 4 L 10 1 z M 9 6 L 9 10 L 15 10 L 15 6 L 9 6 z M 10 7 L 14 7 L 14 9 L 10 9 L 10 7 z M 9 11 L 9 16 L 15 16 L 15 11 L 9 11 z M 10 12 L 14 12 L 14 15 L 10 15 L 10 12 z "
     />
  <path
     style="fill:#ffffff"
     d="M 10 1 L 10 4 L 14 4 L 14 1 L 10 1 z M 10 7 L 10 9 L 14 9 L 14 7 L 10 7 z M 10 12 L 10 15 L 14 15 L 14 12 L 10 12 z "
     />
  <path
     style="fill:#4d82b8"
     d="M 3.5,2 C 3.223,2 3,2.223 3,2.5 v 2 C 3,4.777 3.223,5 3.5,5 3.777,5 4,4.777 4,4.5 V 3 H 7.5 C 7.777,3 8,2.777 8,2.5 8,2.223 7.777,2 7.5,2 Z m 0,9 C 3.223,11 3,11.223 3,11.5 v 2 C 3,13.777 3.223,14 3.5,14 h 4 C 7.777,14 8,13.777 8,13.5 8,13.223 7.777,13 7.5,13 H 4 V 11.5 C 4,11.223 3.777,11 3.5,11 Z"
     />
  <path
     style="fill:#e68497"
     d="M 1,7 H 7 V 9 H 1 Z"
     />
</svg>
